app/component-library/components/Icons/Icon/assets/lock-circle.svg

<svg width="24" height="24" viewBox="0 0 24 24" fill="none" xmlns="http://www.w3.org/2000/svg">
<path d="M12.2808 7.75C10.3908 7.75 10.0308 8.54 10.0308 10V10.62H14.5308V10C14.5308 8.54 14.1708 7.75 12.2808 7.75Z" fill="currentColor"/>
<path d="M12.2808 15.1C12.8883 15.1 13.3808 14.6075 13.3808 14C13.3808 13.3925 12.8883 12.9 12.2808 12.9C11.6732 12.9 11.1808 13.3925 11.1808 14C11.1808 14.6075 11.6732 15.1 12.2808 15.1Z" fill="currentColor"/>
<path d="M12.2808 2C6.76076 2 2.28076 6.48 2.28076 12C2.28076 17.52 6.76076 22 12.2808 22C17.8008 22 22.2808 17.52 22.2808 12C22.2808 6.48 17.8008 2 12.2808 2ZM17.6608 14.5C17.6608 16.7 16.9808 17.38 14.7808 17.38H9.78076C7.58076 17.38 6.90076 16.7 6.90076 14.5V13.5C6.90076 11.79 7.31076 11 8.53076 10.73V10C8.53076 9.07 8.53076 6.25 12.2808 6.25C16.0308 6.25 16.0308 9.07 16.0308 10V10.73C17.2508 11 17.6608 11.79 17.6608 13.5V14.5Z" fill="currentColor"/>
</svg>

<svg xmlns="http://www.w3.org/2000/svg" width="24" height="24" viewBox="0 0 24 24" fill="none"><path d="M12.28 7.75c-1.89 0-2.25.79-2.25 2.25v.62h4.5V10c0-1.46-.36-2.25-2.25-2.25zM12.28 15.1a1.1 1.1 0 1 0 0-2.2 1.1 1.1 0 0 0 0 2.2z" fill="currentColor"/><path d="M12.28 2c-5.52 0-10 4.48-10 10s4.48 10 10 10 10-4.48 10-10-4.48-10-10-10zm5.38 12.5c0 2.2-.68 2.88-2.88 2.88h-5c-2.2 0-2.88-.68-2.88-2.88v-1c0-1.71.41-2.5 1.63-2.77V10c0-.93 0-3.75 3.75-3.75s3.75 2.82 3.75 3.75v.73c1.22.27 1.63 1.06 1.63 2.77v1z" fill="currentColor"/></svg>
